X:122
T:Polska efter Petter Olas Anna
R:sl\"angpolska
H:efter Petter Olas Anna (1828-1903), J\"at
A:Sm{\aa}land
B:Sm{\aa}l\"andsk musiktradition 310
Z:id:hn-sp-122
M:3/4
L:1/16
K:Gm =e
d3c BcBA G2B2 | ABAG FGAB ^c2d2 | d3c BcBA G2B2 | ABAG F2G2 G4 :| [K:G]
|: dcBd g2B2 d2c2 | cBcd e2A2 c2B2 | dcBd g2B2 d2c2 | cBcA F2G2 G4 :|
<end>
<start>
